source/img/svg/logo-desktop.svg

<svg width="202" height="59" viewBox="0 0 202 59" fill="none" xmlns="http://www.w3.org/2000/svg">
<path d="M59.8825 23.8063C58.1585 19.7092 55.3821 16.1318 51.83 13.4305C48.2778 10.7293 44.074 8.99857 39.6374 8.41088C35.2008 7.82319 30.6864 8.39905 26.5441 10.0811C22.4017 11.7631 18.7762 14.4925 16.0287 17.9973C13.2812 21.5021 11.5077 25.6599 10.885 30.0564C10.2622 34.4529 10.812 38.9344 12.4795 43.0545C14.147 47.1745 16.874 50.7892 20.3887 53.5382C23.9034 56.2872 28.083 58.0746 32.5111 58.7223C31.9311 56.6491 31.3411 54.3578 30.8211 51.9275C32.3339 52.9009 33.9262 53.747 35.5813 54.457C35.5813 54.457 35.7013 56.5995 35.8613 58.9901C37.6496 59.0207 39.4362 58.8644 41.1916 58.5239C41.1462 58.2746 41.1462 58.0193 41.1916 57.77C41.4816 55.9151 42.2816 52.5723 42.4416 50.4198C43.595 49.3498 44.5734 48.1082 45.3418 46.7397L45.2818 47.1762C44.7317 51.4018 43.5817 55.9151 42.8817 57.1649C42.655 57.5786 42.3761 57.962 42.0516 58.3056C45.6716 57.4633 49.0636 55.8502 51.9924 53.5781C54.9212 51.3059 57.3168 48.4292 59.013 45.1473C60.7093 41.8653 61.6656 38.2568 61.8158 34.5717C61.9659 30.8867 61.3062 27.2133 59.8825 23.8063ZM58.4124 27.5657C57.9724 27.9923 57.0624 28.2799 56.9123 26.9904C56.7623 25.7009 56.7223 24.7983 56.7223 24.7983C56.7223 24.7983 54.7922 21.3959 54.0722 21.3563C53.3522 21.3166 48.2419 24.7983 46.8918 26.3159C45.7218 27.5955 45.4918 27.5062 45.4918 29.7579C45.4918 31.4541 45.7118 37.862 45.5918 42.7621L37.4414 44.9146C34.8796 45.6438 32.2744 46.2137 29.641 46.6207L28.6409 40.8378H28.5009L25.9308 27.774C25.9308 27.774 22.1206 26.3457 20.7206 25.9588C20.0632 25.6735 19.3372 25.5808 18.6284 25.6915C17.9196 25.8023 17.2575 26.1118 16.7204 26.5837C16.1723 27.0597 15.7342 27.6471 15.4356 28.3061C15.1371 28.9651 14.9852 29.6802 14.9903 30.4027C15.2017 30.8637 15.3626 31.3459 15.4703 31.841C15.5203 32.3171 14.2702 32.2675 13.4702 32.2675C12.6702 32.2675 12.5502 30.8391 13.1802 29.1627C13.6717 27.8737 14.2809 26.632 15.0003 25.4529C15.5413 24.3997 16.2392 23.4333 17.0704 22.5862C17.0704 22.5862 17.2104 22.249 18.3204 22.3482C19.4305 22.4474 25.6008 22.7747 25.6008 22.7747L25.6508 20.523C32.3575 19.6045 39.1216 19.1603 45.8918 19.1938C45.8918 19.7989 45.8918 20.404 45.8918 21.0091C48.4562 19.8483 51.2175 19.1754 54.0322 19.0252C54.1828 19.0214 54.332 19.0548 54.4664 19.1223C54.6008 19.1898 54.7162 19.2894 54.8022 19.4121C55.1423 19.8386 57.2124 22.3879 57.4524 22.7549C58.1246 23.7078 58.7359 24.7017 59.2825 25.7307C59.0951 26.3822 58.8012 26.9988 58.4124 27.5558V27.5657Z" fill="#FDC305"/>
<path d="M56.4628 21.4951C56.9329 22.0903 57.3429 22.616 57.4629 22.7747C58.1351 23.7277 58.7464 24.7215 59.293 25.7505C59.1027 26.3806 58.8124 26.9767 58.4329 27.5161C57.9929 27.9427 57.0829 28.2303 56.9329 26.9408C56.7829 25.6513 56.7229 24.7983 56.7229 24.7983C56.7229 24.7983 54.7928 21.3959 54.0727 21.3563C53.3527 21.3166 48.2424 24.7983 46.8924 26.3159C45.7223 27.5955 45.4923 27.5062 45.4923 29.7579C45.4923 31.2458 45.6623 36.3542 45.6223 40.8973C47.4324 41.0957 50.0925 41.5916 50.8926 42.7621C50.8926 42.7621 50.6026 35.64 58.703 39.3697C58.703 39.3697 58.983 29.6587 70.1635 32.1485C66.3628 27.7223 61.7035 24.0994 56.4628 21.4951Z" fill="#F06351"/>
<path d="M45.9323 19.1938C45.9729 13.6973 45.5043 8.2087 44.5322 2.79724C44.5322 2.79724 44.3822 1.50773 43.6622 2.55918C43.068 3.81617 42.6636 5.15308 42.4621 6.5269C38.1871 6.25483 33.896 6.36771 29.6415 6.86415C28.8214 4.13635 27.4214 2.89643 26.7513 3.22377C26.0813 3.55111 26.0013 6.4773 26.0013 6.4773L25.6713 20.523C32.3846 19.6036 39.1554 19.1594 45.9323 19.1938Z" fill="#F06351"/>
<path d="M45.3515 46.7397C45.4815 45.6784 45.5515 44.2698 45.5915 42.7125L37.4415 44.865C34.8809 45.611 32.2758 46.1974 29.6415 46.6207L30.7515 51.5804C30.7515 51.6895 30.7515 51.7986 30.8215 51.9077C32.3342 52.8811 33.9265 53.7272 35.5815 54.4371C38.0002 53.2903 40.3038 51.9186 42.4615 50.3404V50.4C43.6096 49.3352 44.5845 48.1005 45.3515 46.7397Z" fill="#E55645"/>
<path d="M32.0016 16.0891C31.9516 15.9899 33.0016 16.7636 33.4116 17.0017C33.8216 17.2397 34.0216 17.4183 34.0216 17.5869C34.0216 17.7556 33.7616 17.9242 33.4016 17.9242C33.0416 17.9242 32.4816 17.8051 32.4016 17.6663C32.3216 17.5274 33.0016 17.6663 33.3416 17.6663H33.6316C33.0159 17.2195 32.4672 16.6885 32.0016 16.0891Z" fill="black"/>
<path d="M39.502 16.1982C39.502 16.1982 38.502 17.4679 38.412 17.5274C38.322 17.5869 38.2419 17.8647 38.6019 17.8151C39.0152 17.7539 39.4231 17.661 39.8219 17.5373C39.9319 17.4778 39.892 17.3389 39.702 17.3588C39.512 17.3786 39.022 17.4084 38.702 17.4679L39.5519 16.2081C39.5519 16.2081 39.582 16.0891 39.502 16.1982Z" fill="black"/>
<path d="M36.3617 22.2589C36.8253 22.0563 37.2084 21.7077 37.4517 21.267C37.7317 20.6123 37.4517 20.3643 37.0117 20.275C36.4064 20.1655 35.7817 20.2859 35.2617 20.6123C34.8717 20.9793 34.9217 21.3364 35.2617 21.6042C35.5995 21.867 35.9691 22.0869 36.3617 22.2589Z" fill="black"/>
<path d="M36.0016 23.5087C35.8868 23.7337 35.7308 23.9355 35.5416 24.1039C35.2568 24.3312 34.9067 24.4631 34.5416 24.4808C33.991 24.5344 33.4405 24.3784 33.0016 24.0444C32.8 23.9274 32.6206 23.7764 32.4716 23.598C32.3715 23.49 32.2486 23.4053 32.1116 23.35C32.1116 23.35 32.8616 27.4269 34.6816 28.0815C36.5016 28.7362 36.8416 27.3277 36.8916 26.9507C36.9525 25.8218 36.6666 24.7011 36.0716 23.7369C36.0716 23.4393 36.0516 23.6377 36.0016 23.5087Z" fill="#F06351"/>
<path d="M34.3015 24.6395C33.8335 24.5728 33.384 24.4127 32.9801 24.1689C32.5763 23.9251 32.2263 23.6027 31.9515 23.2211C31.9269 23.1938 31.9133 23.1585 31.9133 23.1219C31.9133 23.0853 31.9269 23.05 31.9515 23.0227C31.9646 23.0095 31.9801 22.999 31.9973 22.9919C32.0145 22.9847 32.0329 22.981 32.0515 22.981C32.0702 22.981 32.0886 22.9847 32.1058 22.9919C32.1229 22.999 32.1385 23.0095 32.1515 23.0227C32.399 23.3671 32.7129 23.6593 33.0751 23.8823C33.4374 24.1054 33.8406 24.2549 34.2615 24.3221C34.5945 24.2973 34.9168 24.1945 35.2019 24.022C35.487 23.8496 35.7268 23.6125 35.9015 23.3302L36.0415 23.1417L36.1415 23.36C36.1415 23.36 36.5215 24.1138 37.1415 24.1535C37.7615 24.1932 38.2015 23.7369 38.7715 22.8739C38.7927 22.8423 38.8257 22.8204 38.8632 22.813C38.9007 22.8055 38.9397 22.8132 38.9715 22.8342C39.0034 22.8553 39.0254 22.888 39.0329 22.9252C39.0404 22.9624 39.0327 23.001 39.0115 23.0326C38.3449 24.0047 37.7149 24.4709 37.1215 24.4312C36.8922 24.4011 36.6726 24.3204 36.4788 24.1951C36.285 24.0698 36.1219 23.9031 36.0015 23.7071C35.8059 23.9781 35.5518 24.2025 35.2577 24.3638C34.9636 24.5251 34.6369 24.6193 34.3015 24.6395Z" fill="black"/>
<path d="M36.2616 37.9909C38.3327 37.9909 40.0116 36.3255 40.0116 34.2712C40.0116 32.2168 38.3327 30.5514 36.2616 30.5514C34.1905 30.5514 32.5116 32.2168 32.5116 34.2712C32.5116 36.3255 34.1905 37.9909 36.2616 37.9909Z" fill="#FDC305"/>
<path d="M41.2316 31.2458L38.1016 32.5452L39.2516 26.9607L31.7516 36.6419L34.8816 35.3425L33.7316 40.937L41.2316 31.2458ZM33.8416 35.0449L38.0016 29.6786L37.1916 33.6463L39.1916 32.8329L35.0016 38.2092L35.8116 34.2414L33.8416 35.0449Z" fill="#111111"/>
<path d="M32.4415 33.5868C33.0601 33.5868 33.5615 33.0894 33.5615 32.4758C33.5615 31.8622 33.0601 31.3648 32.4415 31.3648C31.823 31.3648 31.3215 31.8622 31.3215 32.4758C31.3215 33.0894 31.823 33.5868 32.4415 33.5868Z" fill="#111111"/>
<path d="M38.9619 37.614C39.3982 37.614 39.7519 37.2631 39.7519 36.8304C39.7519 36.3976 39.3982 36.0467 38.9619 36.0467C38.5256 36.0467 38.1719 36.3976 38.1719 36.8304C38.1719 37.2631 38.5256 37.614 38.9619 37.614Z" fill="#111111"/>
<path d="M39.9219 35.4615C40.1152 35.4615 40.2719 35.3061 40.2719 35.1143C40.2719 34.9226 40.1152 34.7672 39.9219 34.7672C39.7286 34.7672 39.5719 34.9226 39.5719 35.1143C39.5719 35.3061 39.7286 35.4615 39.9219 35.4615Z" fill="#111111"/>
<path d="M45.8822 20.9892C44.077 22.6034 42.3768 24.3295 40.792 26.1572C39.2133 27.9717 37.4318 29.6023 35.4817 31.0177C35.2617 30.4919 33.8516 29.5099 33.8516 29.5099C33.8516 29.5099 30.7115 27.3773 28.6514 25.7009C27.5377 24.7809 26.4886 23.7867 25.5112 22.7251L23.5111 22.616C26.3983 26.7991 30.628 29.8897 35.5117 31.3847C36.3717 31.2458 38.7919 29.5298 40.602 28.1311C42.7434 26.3247 44.7489 24.3654 46.6022 22.2688C47.1004 21.6816 47.4867 21.0094 47.7423 20.285C46.6023 20.6619 45.8822 20.9892 45.8822 20.9892Z" fill="#F06351"/>
<path d="M65.2227 3.47176L56.7627 12.8356L55.5427 10.8616L63.6927 0L65.2227 3.47176Z" fill="#FDC305"/>
<path d="M62.6531 17.1207L68.1931 13.0439L67.4131 9.33406L62.0131 14.1052L62.6531 17.1207Z" fill="#FDC305"/>
<path d="M59.923 48.9716L66.053 52.1259L69.063 49.8048L62.373 47.077L59.923 48.9716Z" fill="#FDC305"/>
<path d="M1.94995 5.92182L5.01995 2.58894L14.31 11.5163L13.09 13.7779L1.94995 5.92182Z" fill="#FDC305"/>
<path d="M7.38003 16.1486L2.68003 13.0439L0.280029 16.8826L5.43003 19.2633L7.38003 16.1486Z" fill="#FDC305"/>
<path d="M13.91 52.1259L9.35999 55.4489L12.16 59L16.18 55.0124L13.91 52.1259Z" fill="#FDC305"/>
<path d="M25.9313 27.774C25.9313 27.774 22.1211 26.3457 20.721 25.9588C20.0636 25.6735 19.3377 25.5808 18.6289 25.6915C17.9201 25.8023 17.258 26.1118 16.7208 26.5837C16.1728 27.0597 15.7346 27.6471 15.4361 28.3061C15.1375 28.9651 14.9856 29.6802 14.9907 30.4027C15.2021 30.8637 15.3631 31.3459 15.4708 31.841C15.5208 32.3171 14.2707 32.2675 13.4707 32.2675C12.6706 32.2675 12.5506 30.8391 13.1807 29.1627C13.6722 27.8737 14.2814 26.632 15.0007 25.4529C9.55047 28.27 0 34.7771 0 34.7771C2.73182 34.6137 5.47292 34.6933 8.1904 35.0151C13.4407 35.5409 13.1907 39.6474 13.1907 39.6474C15.0373 39.1425 16.9192 38.7745 18.8209 38.5464C20.941 38.4075 21.091 40.6493 21.091 40.6493L21.6211 44.4781C22.4259 43.6145 23.3134 42.8305 24.2712 42.1372C25.5057 41.157 27.0776 40.6942 28.6514 40.8477L25.9313 27.774Z" fill="#F06351"/>
<path d="M85.6642 41.6611C84.634 40.1469 84.1415 38.3356 84.2642 36.5129V29.0735C84.1343 27.2374 84.6194 25.4102 85.6442 23.8758C86.5709 22.6921 88.1542 22.1035 90.3942 22.1101C92.6342 22.1167 94.1509 22.6358 94.9442 23.6675C95.9115 24.9458 96.3836 26.5265 96.2742 28.1212V29.867H92.1342V27.9724C92.1286 27.4739 92.0852 26.9766 92.0042 26.4845C91.9542 26.1283 91.7893 25.7978 91.5342 25.5422C91.3767 25.4083 91.1939 25.3068 90.9965 25.2438C90.799 25.1808 90.5909 25.1574 90.3842 25.1752C90.0874 25.1313 89.7842 25.1791 89.5158 25.3122C89.2474 25.4453 89.0268 25.6573 88.8842 25.9191C88.6213 26.6157 88.5055 27.3585 88.5442 28.1014V37.5446C88.4986 38.2923 88.6322 39.0402 88.9342 39.7268C89.0785 39.9745 89.2926 40.175 89.5502 40.3037C89.8078 40.4323 90.0977 40.4835 90.3842 40.4509C90.6658 40.4904 90.9527 40.4407 91.2041 40.3089C91.4555 40.1771 91.6585 39.9699 91.7842 39.7169C92.0261 39.019 92.1313 38.2816 92.0942 37.5446V35.5607H96.2342V37.2767C96.3561 38.895 95.9226 40.5066 95.0042 41.8495C94.1242 42.9407 92.6042 43.4763 90.4442 43.4763C88.2842 43.4763 86.5942 42.8811 85.6642 41.6611Z" fill="#111111"/>
<path d="M101.915 22.3978H106.655L110.655 43.2283H106.715L106.005 38.6258H102.685L101.885 43.1986H97.8849L101.915 22.3978ZM105.565 36.0071L104.305 27.6352L103.055 36.0071H105.565Z" fill="#111111"/>
<path d="M113.725 25.5323H110.485V22.3978H121.205V25.5323H118.005V43.1986H113.715L113.725 25.5323Z" fill="#111111"/>
<path d="M129.616 22.3978H137.746V24.5602H132.546V31.4343H136.766V33.4876H132.546V41.1155H137.796V43.1986H129.616V22.3978Z" fill="#444444"/>
<path d="M140.157 22.3978H142.157L148.157 36.2154V22.3978H150.597V43.2283H148.727L142.727 29.0239V43.1986H140.247L140.157 22.3978Z" fill="#444444"/>
<path d="M153.828 22.3978H161.948V24.5602H156.748V31.4343H161.008V33.4876H156.788V41.1155H162.008V43.1986H153.828V22.3978Z" fill="#444444"/>
<path d="M164.358 22.3978H168.578C170.241 22.265 171.897 22.7259 173.248 23.6972C174.248 24.5602 174.738 25.9687 174.738 27.9228C174.738 30.568 173.875 32.1848 172.148 32.7734L175.148 43.1986H172.308L169.558 33.438H167.288V43.1986H164.358V22.3978ZM168.358 31.3251C169.322 31.4176 170.285 31.1486 171.058 30.5713C171.372 30.2024 171.607 29.7736 171.748 29.3113C171.889 28.849 171.933 28.363 171.878 27.8832C171.898 27.2102 171.8 26.5389 171.588 25.8993C171.502 25.6635 171.369 25.4471 171.198 25.2631C171.026 25.0791 170.819 24.9312 170.588 24.828C169.939 24.5638 169.239 24.4453 168.538 24.4808H167.248V31.3648L168.358 31.3251Z" fill="#444444"/>
<path d="M178.679 41.6611C177.723 40.0607 177.28 38.21 177.409 36.3542V29.4107C177.374 28.0708 177.543 26.7333 177.909 25.443C178.198 24.473 178.811 23.6297 179.649 23.0525C180.66 22.4481 181.83 22.1579 183.009 22.2192C183.771 22.1473 184.54 22.2414 185.262 22.495C185.984 22.7486 186.642 23.1555 187.189 23.6873C188.148 25.0205 188.602 26.6472 188.469 28.2799V29.0536H185.719V28.4089C185.738 27.6377 185.677 26.8667 185.539 26.1076C185.448 25.6211 185.177 25.186 184.779 24.8875C184.26 24.5836 183.66 24.4419 183.059 24.4808C182.406 24.4254 181.756 24.6247 181.249 25.0363C180.834 25.4267 180.563 25.9435 180.479 26.5044C180.352 27.3215 180.295 28.1477 180.309 28.9743V36.7014C180.229 37.8756 180.432 39.0518 180.899 40.1335C181.17 40.4662 181.515 40.7329 181.906 40.9133C182.297 41.0937 182.725 41.183 183.156 41.1744C183.587 41.1658 184.011 41.0595 184.394 40.8636C184.778 40.6677 185.111 40.3874 185.369 40.0442C185.851 38.9001 186.059 37.661 185.979 36.4237V34.9556H183.319V32.9023H188.619V43.1986H186.809L186.519 40.808C186.29 41.6022 185.796 42.2962 185.119 42.777C184.442 43.2578 183.621 43.4973 182.789 43.4565C182.007 43.5249 181.22 43.3961 180.501 43.0823C179.783 42.7684 179.156 42.2795 178.679 41.6611Z" fill="#444444"/>
<path d="M194.699 35.8583L190.169 22.3978H192.889L196.099 32.4361L199.259 22.3978H202.009L197.509 35.8583V43.1986H194.709L194.699 35.8583Z" fill="#444444"/>
</svg>

<svg width="202" height="59" viewBox="0 0 202 59" fill="none" xmlns="http://www.w3.org/2000/svg">
  <path d="M59.883 23.806A25.432 25.432 0 0051.83 13.43a25.725 25.725 0 00-12.193-5.02 25.803 25.803 0 00-13.093 1.671 25.59 25.59 0 00-10.515 7.916 25.296 25.296 0 00-5.144 12.06 25.212 25.212 0 001.595 12.997 25.423 25.423 0 007.909 10.484 25.719 25.719 0 0012.122 5.184 113.04 113.04 0 01-1.69-6.794 32.41 32.41 0 004.76 2.529s.12 2.142.28 4.533c1.789.03 3.575-.126 5.33-.466a2.104 2.104 0 010-.754c.29-1.855 1.09-5.198 1.25-7.35a15.114 15.114 0 002.9-3.68l-.06.436c-.55 4.226-1.7 8.74-2.4 9.989a5.536 5.536 0 01-.83 1.14 25.73 25.73 0 009.941-4.727 25.48 25.48 0 007.021-8.43 25.252 25.252 0 00.87-21.341zm-1.47 3.76c-.44.426-1.35.714-1.5-.576a34.09 34.09 0 01-.19-2.192s-1.93-3.402-2.65-3.442c-.72-.04-5.831 3.442-7.181 4.96-1.17 1.28-1.4 1.19-1.4 3.442 0 1.696.22 8.104.1 13.004l-8.15 2.153c-2.562.729-5.168 1.299-7.801 1.706l-1-5.783h-.14l-2.57-13.064s-3.81-1.428-5.21-1.815a3.788 3.788 0 00-4 .625 5.032 5.032 0 00-1.285 1.722 4.995 4.995 0 00-.446 2.097c.212.46.373.943.48 1.438.05.476-1.2.426-2 .426s-.92-1.428-.29-3.104c.492-1.29 1.1-2.531 1.82-3.71a11.776 11.776 0 012.07-2.867s.14-.337 1.25-.238c1.11.1 7.28.427 7.28.427l.05-2.252a143.93 143.93 0 0120.242-1.33v1.816a22.671 22.671 0 018.14-1.984.916.916 0 01.77.387c.34.427 2.41 2.976 2.65 3.343a27.73 27.73 0 011.83 2.976 6.167 6.167 0 01-.87 1.825v.01z" fill="#FDC305"/>
  <path d="M56.463 21.495c.47.595.88 1.121 1 1.28a27.74 27.74 0 011.83 2.976c-.19.63-.48 1.226-.86 1.765-.44.427-1.35.714-1.5-.575-.15-1.29-.21-2.143-.21-2.143s-1.93-3.402-2.65-3.442c-.72-.04-5.83 3.442-7.18 4.96-1.17 1.28-1.4 1.19-1.4 3.442 0 1.488.17 6.596.13 11.14 1.81.198 4.47.694 5.27 1.864 0 0-.29-7.122 7.81-3.392 0 0 .28-9.711 11.46-7.221a43.671 43.671 0 00-13.7-10.654zM45.932 19.194a89.015 89.015 0 00-1.4-16.397s-.15-1.29-.87-.238a14.057 14.057 0 00-1.2 3.968 71.461 71.461 0 00-12.82.337c-.82-2.728-2.22-3.968-2.89-3.64-.67.327-.75 3.253-.75 3.253l-.33 14.046a143.942 143.942 0 0120.26-1.33z" fill="#F06351"/>
  <path d="M45.352 46.74c.13-1.062.2-2.47.24-4.028l-8.15 2.153a64.434 64.434 0 01-7.8 1.756l1.11 4.96c0 .108 0 .218.07.327a32.398 32.398 0 004.76 2.53 42.484 42.484 0 006.88-4.098v.06a15.115 15.115 0 002.89-3.66z" fill="#E55645"/>
  <path d="M32.002 16.09c-.05-.1 1 .674 1.41.912.41.238.61.416.61.585 0 .169-.26.337-.62.337s-.92-.119-1-.258c-.08-.139.6 0 .94 0h.29a8.052 8.052 0 01-1.63-1.577zM39.502 16.198s-1 1.27-1.09 1.33c-.09.059-.17.337.19.287a8.146 8.146 0 001.22-.278c.11-.06.07-.198-.12-.178-.19.02-.68.05-1 .109l.85-1.26s.03-.119-.05-.01zM36.362 22.259a2.293 2.293 0 001.09-.992c.28-.655 0-.903-.44-.992-.606-.11-1.23.01-1.75.337-.39.367-.34.724 0 .992a5.17 5.17 0 001.1.655z" fill="#000"/>
  <path d="M36.002 23.509c-.115.225-.271.427-.46.595-.285.227-.635.36-1 .377a2.193 2.193 0 01-1.54-.437 1.995 1.995 0 01-.53-.446 1.002 1.002 0 00-.36-.248s.75 4.077 2.57 4.731c1.82.655 2.16-.753 2.21-1.13a5.55 5.55 0 00-.82-3.214c0-.298-.02-.1-.07-.228z" fill="#F06351"/>
  <path d="M34.301 24.64a3.518 3.518 0 01-2.35-1.419.148.148 0 010-.198.14.14 0 01.155-.031.14.14 0 01.045.03 3.209 3.209 0 002.11 1.3 2.121 2.121 0 001.64-.992l.14-.188.1.218s.38.754 1 .794c.62.04 1.06-.417 1.63-1.28a.144.144 0 01.2-.04.143.143 0 01.04.199c-.666.972-1.296 1.438-1.89 1.398a1.557 1.557 0 01-1.12-.724 2.254 2.254 0 01-1.7.933z" fill="#000"/>
  <path d="M36.262 37.99c2.07 0 3.75-1.665 3.75-3.719s-1.68-3.72-3.75-3.72c-2.072 0-3.75 1.666-3.75 3.72 0 2.054 1.678 3.72 3.75 3.72z" fill="#FDC305"/>
  <path d="M41.232 31.246l-3.13 1.3 1.15-5.585-7.5 9.68 3.13-1.298-1.15 5.594 7.5-9.691zm-7.39 3.799l4.16-5.366-.81 3.967 2-.813-4.19 5.376.81-3.968-1.97.804zM32.441 33.587c.62 0 1.12-.498 1.12-1.111 0-.614-.5-1.111-1.12-1.111-.618 0-1.12.497-1.12 1.11 0 .614.502 1.112 1.12 1.112zM38.962 37.614c.436 0 .79-.35.79-.784a.787.787 0 00-.79-.783c-.436 0-.79.35-.79.783 0 .433.354.784.79.784zM39.922 35.462c.193 0 .35-.156.35-.348a.349.349 0 00-.35-.347.349.349 0 00-.35.347c0 .192.157.348.35.348z" fill="#111"/>
  <path d="M45.882 20.99a57.219 57.219 0 00-5.09 5.167 31.79 31.79 0 01-5.31 4.86c-.22-.525-1.63-1.507-1.63-1.507s-3.14-2.133-5.2-3.81a31.78 31.78 0 01-3.14-2.975l-2-.109a22.62 22.62 0 0012 8.769c.86-.14 3.28-1.855 5.09-3.254a57.44 57.44 0 006-5.862 6.314 6.314 0 001.14-1.984c-1.14.377-1.86.704-1.86.704z" fill="#F06351"/>
  <path d="M65.223 3.472l-8.46 9.364-1.22-1.974L63.693 0l1.53 3.472zM62.653 17.12l5.54-4.076-.78-3.71-5.4 4.771.64 3.016zM59.923 48.972l6.13 3.154 3.01-2.321-6.69-2.728-2.45 1.895zM1.95 5.922l3.07-3.333 9.29 8.927-1.22 2.262L1.95 5.922zM7.38 16.149l-4.7-3.105-2.4 3.839 5.15 2.38 1.95-3.114zM13.91 52.126l-4.55 3.323L12.16 59l4.02-3.988-2.27-2.886z" fill="#FDC305"/>
  <path d="M25.931 27.774s-3.81-1.428-5.21-1.815a3.788 3.788 0 00-4 .625 5.032 5.032 0 00-1.285 1.722 4.994 4.994 0 00-.445 2.097c.211.46.372.943.48 1.438.05.476-1.2.426-2 .426s-.92-1.428-.29-3.104c.491-1.29 1.1-2.531 1.82-3.71C9.55 28.27 0 34.777 0 34.777a46.196 46.196 0 018.19.238c5.25.526 5 4.632 5 4.632a38.924 38.924 0 015.63-1.1c2.121-.14 2.271 2.102 2.271 2.102l.53 3.83a18.248 18.248 0 012.65-2.342 6.095 6.095 0 014.38-1.29l-2.72-13.073z" fill="#F06351"/>
  <path d="M85.664 41.661a8.174 8.174 0 01-1.4-5.148v-7.44a8.301 8.301 0 011.38-5.197c.927-1.184 2.51-1.773 4.75-1.766 2.24.007 3.757.526 4.55 1.558a6.628 6.628 0 011.33 4.453v1.746h-4.14v-1.895a9.84 9.84 0 00-.13-1.488 1.66 1.66 0 00-.47-.942 1.565 1.565 0 00-1.15-.367 1.47 1.47 0 00-.868.137 1.455 1.455 0 00-.632.607 5.386 5.386 0 00-.34 2.182v9.444a4.707 4.707 0 00.39 2.182 1.476 1.476 0 001.45.724c.282.04.569-.01.82-.142.252-.132.455-.34.58-.592a5.75 5.75 0 00.31-2.172V35.56h4.14v1.716a7.147 7.147 0 01-1.23 4.572c-.88 1.092-2.4 1.627-4.56 1.627-2.16 0-3.85-.595-4.78-1.815zM101.915 22.398h4.74l4 20.83h-3.94l-.71-4.602h-3.32l-.8 4.573h-4l4.03-20.801zm3.65 13.61l-1.26-8.373-1.25 8.372h2.51zM113.725 25.532h-3.24v-3.134h10.72v3.134h-3.2V43.2h-4.29l.01-17.667z" fill="#111"/>
  <path d="M129.616 22.398h8.13v2.162h-5.2v6.874h4.22v2.054h-4.22v7.627h5.25V43.2h-8.18V22.398zM140.157 22.398h2l6 13.817V22.398h2.44v20.83h-1.87l-6-14.204v14.175h-2.48l-.09-20.801zM153.828 22.398h8.12v2.162h-5.2v6.874h4.26v2.054h-4.22v7.627h5.22V43.2h-8.18V22.398zM164.358 22.398h4.22a7.042 7.042 0 014.67 1.3c1 .862 1.49 2.27 1.49 4.225 0 2.645-.863 4.262-2.59 4.85l3 10.426h-2.84l-2.75-9.761h-2.27v9.76h-2.93v-20.8zm4 8.927a3.891 3.891 0 002.7-.754 3.536 3.536 0 00.82-2.688 5.76 5.76 0 00-.29-1.984 1.883 1.883 0 00-1-1.071 4.794 4.794 0 00-2.05-.347h-1.29v6.884l1.11-.04zM178.679 41.661a9.113 9.113 0 01-1.27-5.307v-6.943a13.27 13.27 0 01.5-3.968 4.443 4.443 0 011.74-2.39 5.947 5.947 0 013.36-.834 5.298 5.298 0 014.18 1.468 6.904 6.904 0 011.28 4.593v.774h-2.75v-.645a11.309 11.309 0 00-.18-2.301 1.98 1.98 0 00-.76-1.22 3.02 3.02 0 00-1.72-.407 2.534 2.534 0 00-1.81.555 2.53 2.53 0 00-.77 1.468 14.484 14.484 0 00-.17 2.47v7.727a7.39 7.39 0 00.59 3.432 2.85 2.85 0 004.47-.09 7.994 7.994 0 00.61-3.62v-1.467h-2.66v-2.054h5.3V43.2h-1.81l-.29-2.391a3.661 3.661 0 01-1.4 1.969 3.71 3.71 0 01-2.33.68 4.698 4.698 0 01-2.288-.375 4.656 4.656 0 01-1.822-1.42zM194.699 35.858l-4.53-13.46h2.72l3.21 10.038 3.16-10.038h2.75l-4.5 13.46v7.34h-2.8l-.01-7.34z" fill="#444"/>
</svg>
